X:10
T:10 Fac ut portem Christi mortem
T:Alto solo
M:C
L:1/8
%%staves a | {1 2 3}
Q:"Largo"
K:Gm
V:a name=Alt dyn=up
Hz8|Hz8|
V:1 name="Str.\nBc."
[Gg]G3//G// G3//B//A3//G// ^F3//^c// {c}dHz2|[=F=f]F3//F// F3//_A//G3//F// =E3//=B// {B}cHz2|
V:2
x8|!dolce!x8|
V:3
G,G,3//G,// G,3//B,//A,3//G,// ^F,DHz2|=F,F,3//F,// F,3//_A,//G,3//F,// =E,CHz2|
V:a		% M3
Hz8|Hz8|
V:1
[_E_e]E3//E// E3//G//F3//E// D3//=A//B Hz(b/^f/|Tg/^f/g-) g//g//(a//b//a//g//f//g//) (f/=e/d)Hyz2|
V:2
!forte!x4x3!dolcea!x|x8|
V:3
_E,E,3//E,// E,3//G,//F,3//E,// D,B, HzD|E(e/=B/ c)^CD2Hy!forte!D,/=C,/_B,,/A,,/|
% (48)
V:a		% M5
z8|Hz8|
V:1
(g/b//a//g)- g/(c//A//)(B//G//)(A//^F//) G/(b//a//g)- g/((c//A//)B//G//)(A//F//)|G3//B//E3//G// ^CDG,2Hz2|
V:2
!forte!x4!dolce!x4|!forte!x8|
V:3
[G,,G,][B,,B,][C,C][D,D] [E,E]B,,C,D,|G,3//B,//E,3//G,// ^C,D,G,,2Hz2|
V:a		% M7
G2-G3//B// TA3//G// ^F {^c}dHz2|!dolce!=F2-F/_A/ TG/F/ =E {=B}cHz2|
w:Fac__ ut_ por-tem Chri --sti_ mor-tem,
V:1
[Gg]G3//G// G3//B//A3//G// ^F3//(^c//d)Hz2|[=F=f]F3//F// F3//_A//G3//F// =E3//(=B//c)Hz2|
V:2
!dolce!x8|!dolcea!x8|
V:3
G,G,3//G,// G,3//B,//A,3//G,// ^F,DHz2|=F,F,3//F,// F,3//_A,//G,3//F,// =E,CHz2|
V:a		% M9
_E2-E/G/ TF/E/ D {A}B zB|TB3/ A//B// c E E D zB|
w:Chri --sti_ mor-tem, pas-sio-nis_ fac con-sor-tem et
V:1
[_E_e]E3//E// E3//G//F3//E// D3//=A// {A}B z[FB-]|B3/A//B// [Ac][A,E] [B,E][DF][DF][Bd]|
V:2
x8|EEx2x4|
V:3
_E,E,3//E,// E,3//G,//F,3//E,// D,B, zD,|C,C,F,,F,, B,,B,,B,,B,,|
V:a		% M11
TA3//B///c///F- F/(c/B/A/) TB3//c///d///F- F/(d/c/B/)|Tc3//d///e///F Tc//TB//A//G//F/E/ TD3//E///F/// TE3//F///G/// (F/d/) c/B/|
w:pla -------------------------------gas_ re -
V:1
[Ac][Ac][Ac][Ac] [Bd][Bd][Bd][Bd]|[ce][ce][ce][ce] [Fd][Fd][DB][CB]|
V:2
x8|x8|
V:3
F,,F,,F,,F,, F,,F,,F,,F,,|F,,F,,F,,F,, B,,C,D,E,|
% (49)
V:a		% M13
G3/e//c// {B}Tc3/ B/B2z2|z8|
w:co ---le-re.
V:1
[CB][CB][CA][CA] [B,B]3/d/ c3//B//A3//B//|w=E3/d/ c3//B//A3//B// w_E3/d/ c3//B//A3//B//|
V:2
x4!forte!x4|!forte!x4!forte!x4|
V:3
zE,F,F,,B,2z2|w=E,2z2w_E,2z2|
V:a		% M15
z8|B3D D Cz2|
w:Fac me pla-gis
V:1
wD(f//A//B//d//) wc(e//G//A//c//) wB(f//A//B//d//) wc(e//G//A//c//)|(B/[Bd]/[Bd]/[Bd]/ [Bd]/[Bd]/[Bd]/[Bd]/) ([Bd]/[Bd]/[Ac]/[Ac]/ [Ac]/[Ac]/[Ac]/[Ac]/)|
V:2
x4x!dolce!x3|!dolce!x8|
V:3
D,[D,D][E,E][F,F] [B,,B,]D,E,F,|B,,B,,D,B,, F,F,A,G,|
V:a		% M17
{AB}c3B/A/ A Gz2|{GA}B3A/G/ G ^Fz D/ D/|
w:vul-ne -ra-ri, vul-ne -ra-ri cru-ce
V:1
([Ac]/[Ac]/[Ac]/[Ac]/ [Ac]/[Ac]/[Ac]/[Ac]/) ([Ac]/[Ac]/[GB]/[GB]/ [GB]/[GB]/[GB]/[GB]/)|([GB]/[GB]/[GB]/[GB]/ [GB]/[GB]/[GB]/[GB]/) ([GB]/[GB]/[^FA]/[FA]/ [FA]/[FA]/[DF]/[DF]/)|
V:2
x8|x8|
V:3
^F,=E,F,D, G,G,,B,,G,,|^C,C,C,C, D,D,D,D,|
V:a		% M19
{=F}E3/ G/ {G}F3/ E/ E D zB|(TB3/A//B// c) G ^F/=E/ Dz2|
w:hac i-ne-bri-a-ri, i-ne ---bri-a -ri
V:1
([EG]/[EG]/[EG]/[EG]/ [C=F]/[CF]/[CF]/[CE]/) ([EF]/[EF]/[DF]/[DF]/ [DF]/[DF]/[FB]/[FB]/)|([EB]/[EB]/[EB]/[EB]/ [EA]/[EA]/[GB]/[GB]/) [^FA]/D/F/A/wd2|
V:2
x8|x4x3!forte!x|
V:3
D,=C,A,,A,, B,,B,,B,,B,,|C,C,C,^C,D,2D,/=C,/B,,/A,,/|
% (50)
V:a		% M21
!forte!TG2G/c/ B/A/G2-G/c//A//B//G//A//^F//|G2G/c//A//B//G// A//^F// G/ F/ G zA/ D/|
w:ob__ a -mo -------------rem_ fi-li-i, ob a-
V:1
G/(b//a//g)- g/(c//A//)(B//G//)(A//^F//) G/(b//a//g)- g/(c//A//)(B//G//)(A//F//)|G/(b//a//g)- g/(c//A//)(B//G//)(A//^F//) (G/F/G) z[Ac]|
V:2
!forte!x4x!dolce!x3|x!sottov!x6!dolce!x|
V:3
[G,,G,][B,,B,][C,C][D,D] [E,E]B,,C,D,|E,B,,C,D,E,2^F,,2|
V:a		% M23
(3B/A/B/ (3c/B/A/ {G}A3/ A/G2^C C|[Q:"Largo"](D=c) (3(BAG)TA3A|
w:mo --rem__ fi-li-i, ob a-mo -rem__ fi-li-
V:1
[DB][GA][GA][^FA] G3//B//E3//G// ^CC|[Q:"Largo"]D8|
V:2
x8|x8|
V:3
G,,C,D,D, G,3//B,//E,3//G,// ^C,C,|D,8|
V:a		% M25
G2z2z4|Hz8|]
w:i.
V:1
G/(b//a//g)- g/(c//A//)(B//G//)(A//^F//) G/(b//a//g)- g/(c//A//)(B//G//)(A//F//)|G3//B//E3//G// ^CDG,2Hz2|]
V:2
x!forte!x4!dolce!x3|!forte!x8|]
V:3
[G,,G,][B,,B,][C,C][D,D] [E,E]B,,C,D,|G,3//B,//E,3//G,// ^C,D,G,,2Hz2|]





%    You should have received a copy of the GNU General Public License
%    along with this work; if not, write to the Free Software
%    Foundation, Inc., 675 Mass Ave, Cambridge, MA 02139, USA.
